svg/external-link.svg

<svg width="24" height="24" viewBox="0 0 24 24" fill="none" xmlns="http://www.w3.org/2000/svg">
<path d="M14 5C13.4477 5 13 4.55228 13 4C13 3.44772 13.4477 3 14 3H20C20.2652 3 20.5196 3.10536 20.7071 3.29289C20.8946 3.48043 21 3.73478 21 4L21 10C21 10.5523 20.5523 11 20 11C19.4477 11 19 10.5523 19 10L19 6.41422L9.70711 15.7071C9.31658 16.0976 8.68342 16.0976 8.29289 15.7071C7.90237 15.3166 7.90237 14.6834 8.29289 14.2929L17.5858 5H14ZM3 7C3 5.89543 3.89543 5 5 5H10C10.5523 5 11 5.44772 11 6C11 6.55228 10.5523 7 10 7H5V19H17V14C17 13.4477 17.4477 13 18 13C18.5523 13 19 13.4477 19 14V19C19 20.1046 18.1046 21 17 21H5C3.89543 21 3 20.1046 3 19V7Z" fill="#0D0D0D"/>
</svg>

<svg width="24" height="24" fill="none" xmlns="http://www.w3.org/2000/svg"><path d="M14 5a1 1 0 110-2h6a1 1 0 011 1v6a1 1 0 11-2 0V6.414l-9.293 9.293a1 1 0 01-1.414-1.414L17.586 5H14zM3 7a2 2 0 012-2h5a1 1 0 110 2H5v12h12v-5a1 1 0 112 0v5a2 2 0 01-2 2H5a2 2 0 01-2-2V7z" fill="#0D0D0D"/></svg>
